!!!!SEGMENT: pl-wtm--a-43-193-99_joteyko-tadeusz--rozspiewalabym-sie-w-glos-op-9-no-6.krn
!!!cenid: 19xx:127
!!!COM: Joteyko, Tadeusz
!!!COM-rismID: pe50046072
!!!CDT: 1872-1932
!!!CNT: Polish
!!!OTL: Rozśpiewałabym się w głos Op. 9 No. 6
!!!PDT:
!!!AGN: Secular; Song
!!!YEC: Copyright 2022 Narodowy Instytut Fryderyka Chopina (https://polishscores.org)
!!!YEM: License CC-BY-4.0 (https://creativecommons.org/licenses/by/4.0)
!!!SMS-siglum: PL-Wtm
!!!SMS-shelfmark: A-43.193/99
!!!SMS-variant:
!!!SMS-altvar:
!!!SMS-shelfwork: W
!!!NIFC-rismSourceID: 1001164817
!!!NIFC-rismChildID: 1001164817
!!!NIFC-islandoraID: pl-wtm:43185
!!!URL-pdf-islandora: https://repozytorium.nifc.pl/islandora/object/pl-wtm%3A43185/datastream/PDF/view
!!!URL-scan: https://polish.musicsources.pl/pl/lokalizacje/galeria/druki-muzyczne/22426/2 @EN{Scan on Polish Music Sources Website} @PL{Skany w portalu Dziedzictwo Muzyki Polskiej w otwartym dostępie}
!!!IIIF:
!!!ONB-nifc:
!!!OMD: Tempo di Mazurka.
!!!AIN: 1 piano 1 vox
!!!key: G
**kern	**kern	**dynam	**kern	**text	**dynam
*part2	*part2	*part2	*part1	*part1	*part1
*staff3	*staff2	*	*staff1	*staff1	*
*ICklav	*ICklav	*	*ICvox	*	*
*Ipiano	*Ipiano	*	*Ivox	*	*
*I"Fortepian.	*I"Fortepian.	*	*I"Śpiew.	*	*
*clefF4	*clefG2	*	*clefG2	*	*
*k[f#]	*k[f#]	*	*k[f#]	*	*
*G:	*G:	*	*G:	*	*
*M3/4	*M3/4	*	*M3/4	*	*
=1	=1	=1	=1	=1	=1
!	!LO:TX:a:B:t=Tempo di Mazurka.	!	!	!	!
4AAA/ 4AA	8ee\L 8gg	f	2.r	.	.
.	8ff#\J 8aa	.	.	.	.
4A\ 4e	4gg\ 4bb	.	.	.	.
4A\ 4d	4ff#\ 4ddd	.	.	.	.
=2	=2	=2	=2	=2	=2
*^	*	*	*	*	*
4GGG/ 4GG	4ryy	8.ff#\L 8.bb	.	2.r	.	.
.	.	16dd\Jk 16aa	.	.	.	.
(4e/	2G\ 2B	2b\ 2gg	.	.	.	.
4e-X/)	.	.	.	.	.	.
*v	*v	*	*	*	*	*
=3	=3	=3	=3	=3	=3
4GGG/ 4GG	8b-X\L 8ee	.	2.r	.	.
.	8ff#\J	.	.	.	.
4G\ 4d	4b-\ 4gg	.	.	.	.
4G\ 4c	4ee\ 4ccc	.	.	.	.
=4	=4	=4	=4	=4	=4
*^	*	*	*	*	*
!	!	!LO:TX:b:i:t=rit.	!	!	!	!
4DD/ 4D	4ryy	8.cc\L 8.ff#	>	2.r	.	.
.	.	16a\Jk 16ee	.	.	.	.
(4Bn/	2D\ 2F#	2f#/ 2dd	.	.	.	.
4A/)	.	.	]]	.	.	.
=5||	=5||	=5||	=5||	=5||	=5||	=5||
!	!	!LO:TX:b:i:t=a tempo	!	!	!	!
4r	2.GG\	8d/L	.	8d/	Roz-	.
.	.	8g/J	.	8g/	-śpie-	.
4G/	.	(>(<4.c#X/ [>4.g 4.a#X	.	4.a#X/	-wa-	.
4G/	.	.	.	.	.	.
.	.	8d/)) 8g] 8b	.	8b\	-ła-	.
!!LO:LB:g=original
=6	=6	=6	=6	=6	=6	=6
4r	2.C\	8e/L 8g 8b	.	8b\	-bym	.
.	.	16r	.	16r	.	.
.	.	16an/Jk	.	16a/	się	.
4E/ 4G 4A	.	2e/	.	2e/	w głos	.
4E/ 4G 4A	.	.	.	.	.	.
=7	=7	=7	=7	=7	=7	=7
4r	2.C#X\	8e/L	.	8e/	jak	.
.	.	8g/J	.	8g/	ta	.
4E/ 4G 4A#X	.	(4.cc#X\	.	4.cc#X\	wil-	.
4E/ 4G 4A#	.	.	.	.	.	.
.	.	8ee\)	.	8ee\	-ga,	.
=8	=8	=8	=8	=8	=8	=8
4r	2.BB\	8ee\L	.	8ee\	jak	.
.	.	16r	.	16r	.	.
.	.	16dd\Jk	.	16dd\	ten	.
4D/ 4F# 4B	.	2b\	.	2b\	kos,	.
4D/ 4F# 4B	.	.	.	.	.	.
*v	*v	*	*	*	*	*
=9	=9	=9	=9	=9	=9
4EE/ 4E	4r	.	8dd\	w bo-	.
.	.	.	8cc#X\	-żej	.
4E\ 4G 4B 4c#X	4b\ 4cc#X 4ee 4gg	.	4.ee\	pust-	.
4E\ 4G 4B 4c#	4b\ 4cc# 4ee 4gg	.	.	.	.
.	.	.	8cc#\	-ce,	.
=10	=10	=10	=10	=10	=10
4FF#/ 4F#	4r	.	8cc#X\	w bo-	.
.	.	.	8b\	-żej	.
4F#\ 4B 4d	4b\ 4dd 4ff#	.	4f#/	ci-	.
4F#\ 4B 4d	4b\ 4dd 4ff#	.	4b\	-szy,	.
!!LO:LB:g=original
=11	=11	=11	=11	=11	=11
!	!LO:TX:b:i:t=rit.	!	!LO:TX:a:i:t=rit.	!	!
4AAA/ 4AA	4r	.	8b\	i	.
.	.	.	8a/	niech	.
4E\ 4G 4A 4c#X	4g\ 4a 4cc#X 4ee	.	4.cc#X\	je-	.
4E\ 4G 4A 4c#	4g\ 4a 4cc# 4ee	.	.	.	.
.	.	.	8g/	-no	.
=12	=12	=12	=12	=12	=12
!	!	!	!	!	!LO:HP:a
4DD/ 4D	4r	>	8.b\	las	>
.	.	.	16a/	mnie	.
4D\ 4F# 4A 4cn	4f#/ 4a 4ccn 4dd	.	4g/	sły-	.
4D\ 4F# 4A 4c	4f#/ 4a 4cc 4dd	]]	4f#/	-szy!	]]
=13	=13	=13	=13	=13	=13
*^	*	*	*	*	*
!	!	!LO:TX:b:i:t=a tempo	!	!LO:TX:a:i:t=a tempo	!	!
4r	4GG\	4r	.	8d/	Roz-	.
.	.	.	.	8g/	-śpie-	.
4A#X/	2G\	(8c#X/L	.	4.a#X/	-wa-	.
.	.	8e/J)	.	.	.	.
(8c#X/L	.	4g/	.	.	.	.
8d/J)	.	.	.	8b\	-ła-	.
=14	=14	=14	=14	=14	=14	=14
4r	2.C\	8e/L 8b	.	8b\	-bym	.
.	.	16r	.	16r	.	.
.	.	16a/Jk	.	16a/	się	.
4E/ 4G 4A	.	(8a\L	.	2e/	w głos	.
.	.	8cc\	.	.	.	.
4E/ 4G 4A	.	8ee\	.	.	.	.
.	.	8gg\J)	.	.	.	.
=15	=15	=15	=15	=15	=15	=15
4r	4C#X\	4r	.	8e/	po-	.
.	.	.	.	8g/	-śród	.
4c#X/	2A#X\	(8e/L	.	4.cc#X\	so-	.
.	.	8g/J)	.	.	.	.
(8e/L	.	4cc#X\	.	.	.	.
8g/J)	.	.	.	8ee\	-sen,	.
*v	*v	*	*	*	*	*
!!LO:PB:g=original
=16	=16	=16	=16	=16	=16
4BBB/ 4BB	8b\L 8ee	.	8ee\	po-	.
.	16r	.	16r	.	.
.	16dd\Jk	.	16dd\	-śród	.
4B\ 4d	(8b\L	.	2b\	brzóz,	.
.	8dd\	.	.	.	.
4B\ 4d	8ff#\	.	.	.	.
.	8bb\J)	.	.	.	.
=17	=17	=17	=17	=17	=17
!	!	!	!	!	!LO:DY:a
4BBB/ 4BB	4r	f	4.gg\	po	f
!	!LO:TX:b:i:t=allargando	!	!	!	!
4G\ 4B 4d	4fn\ 4b 4dd 4ffn	.	.	.	.
.	.	.	8ffn\	zie-	.
4G\ 4B 4d	4f\ 4b 4dd 4ff	.	8dd\	-lo-	.
.	.	.	8b\	-nej	.
=18	=18	=18	=18	=18	=18
4AAA/ 4AA	4r	.	8.dd\	mchów	.
.	.	.	16cc\	po-	.
4E\ 4A 4c	4e/ 4a 4cc 4ee	.	4ee\	-ście-	.
4E\ 4A 4c	4e/ 4a 4cc 4ee	.	4ee\	-li,	.
=19	=19	=19	=19	=19	=19
!	!	!	!LO:TX:a:i:t=rit.	!	!LO:DY:a:rj
4BBB/ 4BB	4r	p	4.cc\	by-	p
!	!LO:TX:b:i:t=rit.:rj	!	!	!	!
4F#\ 4A 4B	4f#X/ 4a 4b 4dd#X	.	.	.	.
.	.	.	8b\	-le	.
4F#\ 4A 4B	4f#/ 4a 4b 4dd#	.	8a/	lud-	.
.	.	.	8f#X/	-zie	.
=20	=20	=20	=20	=20	=20
4EE/ 4E	4r	.	8.f#/	nie	.
!	!	!	!	!	!LO:HP:a
.	.	.	16e/	sły-	>
4E\ 4G 4c	4e/ 4g 4cc 4ee	>	4g/	-sze-	.
4E\ 4G 4B	4e/ 4g 4b 4ee	]]	4g/	-li...	]]
!!LO:LB:g=original
=21||	=21||	=21||	=21||	=21||	=21||
!	!LO:TX:a:B:t=Più vivo.	!	!LO:TX:a:B:t=Più vivo.	!	!
4EE/ 4BB	2.r	f	2.r	.	.
4EE/ 4BB	.	.	.	.	.
4EE/ 4BB	.	.	.	.	.
=22	=22	=22	=22	=22	=22
4EE/ 4BB	(8e/L	.	2.r	.	.
.	8g/	.	.	.	.
4EE/ 4BB	8a/	.	.	.	.
.	8cc/	.	.	.	.
4EE/ 4BB	8b/	.	.	.	.
.	8ee/J)	.	.	.	.
=23	=23	=23	=23	=23	=23
4EE/ 4BB	8b/L	.	2.r	.	.
.	16r	.	.	.	.
.	16a/Jk	.	.	.	.
4EE/ 4BB	2c/ 2e	.	.	.	.
4EE/ 4BB	.	.	.	.	.
=24	=24	=24	=24	=24	=24
4EE/ 4BB	(8e/L	.	8e/	Śpie-	.
.	8g/	.	8g/	-wa-	.
4EE/ 4BB	8a/	.	4a/	-ła-	.
.	8cc/	.	.	.	.
4EE/ 4BB	8b/	.	4g/	-bym	.
.	8ee/J)	.	.	.	.
=25	=25	=25	=25	=25	=25
4EE/ 4BB	8b/L	.	8e/	tak-	.
.	16r	.	16r	.	.
.	16g/Jk	.	16g/	-że	.
4EE/ 4BB	2c/ 2e	.	2cc\	im	.
4EE/ 4BB	.	.	.	.	.
=26	=26	=26	=26	=26	=26
4EE/ 4BB	(8c/L 8e	.	8e/	to,	.
.	8g/J)	.	8g/	co	.
4EE/ 4BB	4c/ 4e	.	4a/	czu-	.
4EE/ 4BB	4c/ 4e	.	4g/	-ję,	.
!!LO:LB:g=original
=27	=27	=27	=27	=27	=27
4EE/ 4BB	(8c/L 8e	.	8e/	to	.
.	8g/J)	.	8g/	co	.
4EE/ 4BB	4c/ 4e	.	2ee\	wiem,	.
4EE/ 4BB	4c/ 4e	.	.	.	.
=28	=28	=28	=28	=28	=28
4EE/ 4BB	(8c/L 8e	.	2.r	.	.
.	8g/	.	.	.	.
4EE/ 4BB	8f#/	.	.	.	.
.	8e/	.	.	.	.
4EE/ 4BB	8f#/	.	.	.	.
.	8g/J)	.	.	.	.
=29	=29	=29	=29	=29	=29
4DD/ 4AA	2.d/ 2.a	.	2.r	.	.
4DD/ 4AA	.	.	.	.	.
4DD/ 4AA	.	.	.	.	.
=30	=30	=30	=30	=30	=30
4DD/ 4AA	(8d/L	.	8d/	gdy-	.
.	8f#/	.	8f#/	-by	.
4DD/ 4AA	8g/	.	4g/	lu-	.
.	8b/	.	.	.	.
4DD/ 4AA	8a/	.	4f#/	-dzie	.
.	8dd/J)	.	.	.	.
=31	=31	=31	=31	=31	=31
4DD/ 4AA	8a/L	.	8d/	by-	.
.	16r	.	16r	.	.
.	16f#/Jk	.	16f#/	-li	.
4DD/ 4AA	2B/ 2d	.	4b\	ta-	.
4DD/ 4AA	.	.	4b\	-cy	.
=32	=32	=32	=32	=32	=32
4DD/ 4AA	(8d/L	.	8d/	ja-	.
.	8f#/	.	8f#/	-ko	.
4DD/ 4AA	8g/	.	4g/	drze-	.
.	8b/	.	.	.	.
4DD/ 4AA	8a/	.	4f#/	-wa,	.
.	8dd/J)	.	.	.	.
!!LO:LB:g=original
=33	=33	=33	=33	=33	=33
4DD/ 4AA	8a/L	.	8d/	ja-	.
.	16r	.	16r	.	.
.	16f#/Jk	.	16f#/	-ko	.
4DD/ 4AA	2B/ 2d	.	4dd\	pta-	.
4DD/ 4AA	.	.	4dd\	-cy.	.
=34	=34	=34	=34	=34	=34
4DD/ 4AA	(8B/L 8d	.	4.ff#\	La,	.
.	8f#/J)	.	.	.	.
4DD/ 4AA	4B/ 4d	.	.	.	.
.	.	.	8dd\	la,	.
4DD/ 4AA	4B/ 4d	.	8b\	la,	.
.	.	.	8dd\	la,	.
=35	=35	=35	=35	=35	=35
4DD/ 4AA	(8A/L 8c#X	.	8cc#X/L	la,	.
.	8f#/J)	.	8a/J	.	.
4DD/ 4AA	4A/ 4c#	.	4f#/	la,	.
4DD/ 4AA	4A/ 4c#	.	4r	.	.
=36	=36	=36	=36	=36	=36
!	!LO:TX:b:i:t=rit.	!	!LO:TX:a:i:t=rit.	!	!
4DD/ 4AA	8A/L 8cn	.	4.dd\	la,	.
.	8f#/	.	.	.	.
4DD/ 4AA	8e/	.	.	.	.
!	!	!	!	!	!LO:HP:a
.	8d/	>	8ccn\	la,	>
4DD/ 4AA	8e/	.	8a/	la,	.
.	8f#/J	.	8f#/	la,	.
=37	=37	=37	=37	=37	=37
4DD/ 4AA	2d/ 2a	.	4d/	la,	.
4DD/ 4AA	.	.	4r	.	.
4DD/ 4AA	4r	]	4r	.	]
!!LO:PB:g=original
=38||	=38||	=38||	=38||	=38||	=38||
!	!LO:TX:a:B:t=Lento.	!	!	!	!
4AAA/ 4AA	8a\L 8cc#X	ff	2.r	.	.
.	8b\J 8dd	.	.	.	.
4A\ 4c#X 4e	4cc#\ 4ee	.	.	.	.
4A\ 4c# 4e	4f#\ 4a 4cc# 4ff#	.	.	.	.
=39	=39	=39	=39	=39	=39
4BBB/ 4BB	8f#/L 8dd#X	.	2.r	.	.
.	8cc#X/J	.	.	.	.
4F#\ 4B 4d#X	2f#/ 2b	.	.	.	.
4F#\ 4B 4d#	.	.	.	.	.
=40||	=40||	=40||	=40||	=40||	=40||
!	!LO:TX:a:B:t=Più animato.	!	!LO:TX:a:B:t=Più animato.	!	!LO:DY:a:rj
4AAA/ 4AA	8a\L 8ccn	p	8cc\	La,	p
.	8b\J 8dd	.	8dd\	la,	.
4A\ 4c 4e	4cc\ 4ee	.	4ee\	la,	.
4A\ 4c	4fn\ 4a 4cc 4ffn	.	4ffn\	la,	.
=41	=41	=41	=41	=41	=41
4B\	8f#X\L 8dd#X	.	8dd#X\L	la,	.
.	8b\J	.	8b\J	.	.
4E\	4g\ 4ee	.	4ee\	la,	.
4E\	4g\ 4ee	.	4ee\	la,	.
=42	=42	=42	=42	=42	=42
4A\	8e/L 8cc#X	.	8cc#X/L	la	.
.	8a/J	.	8a/J	.	.
4D\	4f#/ 4dd	.	4dd\	la,	.
4D\	4f#/ 4dd	.	4dd\	la,	.
=43	=43	=43	=43	=43	=43
!	!LO:TX:b:i:t=rit.	!	!	!	!LO:HP:a
4DD/	8e/L 8f# 8ccn	>	8ccn\	la,	>
.	8d/J 8f# 8b	.	8b\	la,	.
4D\	2c;/ 2f# 2a	]]	2a;/	la	]
4D;\	.	.	.	.	.
!!LO:LB:g=original
=44||	=44||	=44||	=44||	=44||	=44||
*^	*	*	*	*	*
!	!	!LO:TX:a:B:t=Tempo I.	!	!LO:TX:a:B:t=Tempo I.	!	!
4r	2.GG\	8d/L	p	8d/	Roz-	.
.	.	8g/J	.	8g/	-śpie-	.
4G/	.	((4.c#X/ [>4.g 4.a#X	.	4.a#X/	-wa-	.
4G/	.	.	.	.	.	.
.	.	8d/)) 8g] 8b	.	8b\	-ła-	.
=45	=45	=45	=45	=45	=45	=45
4r	2.C\	8e/L 8g 8b	.	8b\	-bym	.
.	.	16r	.	16r	.	.
.	.	16an/Jk	.	16an/	się	.
4E/ 4G 4A	.	(16e/LL	.	2e/	w głos,	.
.	.	16g/	.	.	.	.
.	.	16a/	.	.	.	.
.	.	16ee/JJ	.	.	.	.
4E/ 4G 4A	.	8eee\)	.	.	.	.
.	.	8r	.	.	.	.
=46	=46	=46	=46	=46	=46	=46
4r	2.C#X\	8e/L	.	8e/	jak	.
.	.	8g/J	.	8g/	ta	.
4E/ 4G 4A#X	.	(4.cc#X\	.	4.cc#X\	wil-	.
4E/ 4G 4A#	.	.	.	.	.	.
.	.	8ee\)	.	8ee\	-ga,	.
=47	=47	=47	=47	=47	=47	=47
4r	2.BB\	8ee\L	.	8ee\	jak	.
.	.	16r	.	16r	.	.
.	.	16dd\Jk	.	16dd\	ten	.
4D/ 4F# 4B	.	(16b\LL	.	2b\	kos,	.
.	.	16dd\	.	.	.	.
.	.	16ee\	.	.	.	.
.	.	16ff#\JJ	.	.	.	.
.	.	(8qbb/	.	.	.	.
4D/ 4F# 4B	.	8bbb\))	.	.	.	.
.	.	8r	.	.	.	.
*v	*v	*	*	*	*	*
!!LO:LB:g=original
=48	=48	=48	=48	=48	=48
!	!LO:TX:b:i:t=allargando	!	!LO:TX:a:i:t=allargando	!	!LO:HP:a
4BBB/ 4BB	8b\L	<	8b\	roz-	<
.	8dd#X\J	.	8dd#X\	-śpie-	.
4D#X\ 4F# 4A 4B	4.a\ 4.b 4.ff#	.	4.ff#\	-wa-	.
4D#\ 4F# 4A 4B	.	.	.	.	.
.	8a\ 8b 8ff#	.	8gg\	-ła-	.
=49	=49	=49	=49	=49	=49
4EE/ 4E	8g\L 8b 8ff#	.	8ff#\	-bym	.
.	8ee\J	[	8ee\	się,	[
!	!	!	!	!	!LO:DY:a:rj
2C;\ 2E 2A	2cc;\ 2ee 2aa	ff	2aa;\	ach!	ff
=50||	=50||	=50||	=50||	=50||	=50||
!	!LO:TX:a:B:t=Vivo.	!	!LO:TX:a:B:t=Vivo.	!	!
4DD/ 4D	4r	ff	8r	.	.
!	!	!	!	!	!LO:DY:a:rj
.	.	.	8dd\	la	ff
4D\ 4A 4c	4f#/ 4a 4dd	.	8ee\L	la,	.
.	.	.	8dd\J	.	.
4D\ 4A 4c	4f#\ 4cc 4dd 4ff#	.	8cc\	la,	.
.	.	.	8a/	la,	.
=51	=51	=51	=51	=51	=51
4GGG/ 4GG	4r	.	4g/	la,	.
4G^\ 4B 4d	4gg^\ 4bb 4ddd 4ggg	.	4gg^\	la.	.
4r	4r	.	4r	.	.
==	==	==	==	==	==
*-	*-	*-	*-	*-	*-
!!!system-decoration: s1{(s2,s3)}
!!!RDF**kern: < = below
!!!RDF**kern: > = above
!!!ENC: Anastazja Marusiak
!!!END: 2023-10-07
!!!EED: Marta Chmielewska
!!!EEV: 2023-10-20
